X:79
T:When first I came to Edinburro
Z:Jack Campin - http://www.campin.me.uk
S:Blaikie MS (NLS MS.1578) p24, Blaikie #73
M:2/4
L:1/16
V:1 midi program 1 74
V:2 midi program 1 46 bass middle = d transpose -24
Q:1/4=56
K: F Mixolydian
[V:1] G|Addd cAAA|AAcc  G2G2| Add=e f2fd|cd`cA G2G2|
[V:2] z|d2d2 f2f2|f2f2  c2c2| f2f2  d2d2|f2`f2 c2c2|
%
[V:1]   DFFF FGBD|DFFF  DGGC| DFFF  FGBd|cB`AG F3 |]
[V:2]   B2b2 B2b2|B2B2 =B2c2|_B2b2  B2b2|c'2c2 f3 |]
W:Transcription (c) Jack Campin 2009, no mirroring or republication without permission

